;FLAVOR:UltiGCode
;TIME:10426
;MATERIAL:9961
;MATERIAL2:0
;NOZZLE_DIAMETER:0.4
;MINX:89.5
;MINY:72.554
;MINZ:0.27
;MAXX:133.5
;MAXY:149.773
;MAXZ:20.87
;Generated with Cura_SteamEngine 4.13.1
M82 ;absolute extrusion mode
G0 F3000 Y50 ;avoid prime blob
G92 E0
G92 E0
G10
;LAYER_COUNT:207
;LAYER:0
M107
G0 F4320 X92.38 Y76.621 Z0.27
;TYPE:SKIRT
G11
G1 F1800 X92.807 Y76.16 E0.05938
G1 X92.91 Y76.057 E0.07315
G1 X93.498 Y75.524 E0.14814
G1 X94.137 Y75.054 E0.2231
G1 X94.821 Y74.651 E0.29813
G1 X95.541 Y74.318 E0.37309
G1 X96.291 Y74.06 E0.44804
G1 X97.064 Y73.878 E0.52309
G1 X97.85 Y73.775 E0.598
G1 X98.478 Y73.75 E0.65739
G1 X101.425 Y73.75 E0.93589
G1 X101.942 Y73.447 E0.99251
G1 X102.664 Y73.116 E1.06757
G1 X103.414 Y72.859 E1.14249
G1 X104.187 Y72.679 E1.2175
G1 X104.974 Y72.578 E1.29248
G1 X105.584 Y72.554 E1.35017
G1 X108.153 Y72.554 E1.59294
G1 X108.945 Y72.594 E1.66788
G1 X109.73 Y72.713 E1.74291
G1 X110.183 Y72.83 E1.78712
G1 X111.499 Y72.831 E1.91148
G1 X112.291 Y72.872 E1.98643
G1 X113.076 Y72.992 E2.06147
G1 X113.521 Y73.107 E2.1049
G1 X117.283 Y73.11 E2.46041
G1 X118.075 Y73.151 E2.53536
G1 X118.86 Y73.271 E2.6104
G1 X119.628 Y73.469 E2.68535
G1 X120.372 Y73.744 E2.76031
G1 X120.384 Y73.75 E2.76158
G1 X124.56 Y73.75 E3.15621
G1 X125.352 Y73.79 E3.23115
G1 X126.137 Y73.909 E3.30618
G1 X126.905 Y74.107 E3.38113
G1 X127.65 Y74.382 E3.45617
G1 X128.363 Y74.729 E3.53111
G1 X129.038 Y75.147 E3.60613
G1 X129.667 Y75.63 E3.68108
G1 X130.128 Y76.057 E3.74046
G1 X130.231 Y76.16 E3.75422
G1 X130.764 Y76.748 E3.82922
G1 X131.234 Y77.387 E3.90418
G1 X131.637 Y78.071 E3.9792
G1 X131.97 Y78.791 E4.05417
G1 X132.228 Y79.541 E4.12912
G1 X132.41 Y80.314 E4.20417
G1 X132.513 Y81.1 E4.27908
G1 X132.538 Y81.728 E4.33847
G1 X132.538 Y82.488 E4.41029
G1 X132.498 Y83.28 E4.48523
G1 X132.379 Y84.065 E4.56026
G1 X132.181 Y84.833 E4.63521
G1 X131.906 Y85.578 E4.71026
G1 X131.706 Y85.989 E4.75345
G1 X131.726 Y86.011 E4.75626
G1 X132.196 Y86.65 E4.83122
G1 X132.599 Y87.334 E4.90624
G1 X132.932 Y88.054 E4.98121
G1 X133.19 Y88.804 E5.05616
G1 X133.372 Y89.577 E5.1312
G1 X133.475 Y90.363 E5.20612
G1 X133.5 Y90.991 E5.26551
G1 X133.5 Y92.84 E5.44024
G1 X133.46 Y93.632 E5.51518
G1 X133.341 Y94.417 E5.59021
G1 X133.143 Y95.185 E5.66516
G1 X132.868 Y95.93 E5.7402
G1 X132.521 Y96.643 E5.81514
G1 X132.103 Y97.318 E5.89017
G1 X131.71 Y97.83 E5.95116
G1 X132.03 Y98.561 E6.02657
G1 X132.273 Y99.317 E6.10161
G1 X132.438 Y100.093 E6.17658
G1 X132.524 Y100.881 E6.25149
G1 X132.538 Y101.344 E6.29526
G1 X132.538 Y121.008 E8.15351
G1 X132.498 Y121.8 E8.22845
G1 X132.379 Y122.585 E8.30348
G1 X132.181 Y123.353 E8.37843
G1 X131.906 Y124.098 E8.45348
G1 X131.706 Y124.509 E8.49667
G1 X131.726 Y124.531 E8.49948
G1 X132.196 Y125.17 E8.57444
G1 X132.599 Y125.854 E8.64946
G1 X132.932 Y126.574 E8.72443
G1 X133.19 Y127.324 E8.79938
G1 X133.372 Y128.097 E8.87443
G1 X133.475 Y128.883 E8.94934
G1 X133.5 Y129.511 E9.00873
G1 X133.5 Y131.33 E9.18063
G1 X133.46 Y132.122 E9.25557
G1 X133.341 Y132.907 E9.3306
G1 X133.143 Y133.675 E9.40554
G1 X132.868 Y134.42 E9.48059
G1 X132.521 Y135.133 E9.55552
G1 X132.103 Y135.808 E9.63055
G1 X131.62 Y136.437 E9.7055
G1 X131.221 Y136.871 E9.76121
G1 X131.119 Y136.974 E9.77491
G1 X130.533 Y137.509 E9.84989
G1 X129.896 Y137.982 E9.92487
G1 X129.214 Y138.389 E9.99992
G1 X128.496 Y138.725 E10.07483
G1 X128.186 Y138.834 E10.10589
G1 X128.246 Y139.396 E10.1593
G1 X128.25 Y140.19 E10.23433
G1 X128.174 Y140.979 E10.30924
G1 X128.02 Y141.758 E10.38428
G1 X127.787 Y142.516 E10.45922
G1 X127.48 Y143.248 E10.53423
G1 X127.101 Y143.945 E10.6092
G1 X126.653 Y144.6 E10.68419
G1 X126.142 Y145.207 E10.75917
G1 X125.572 Y145.759 E10.83416
G1 X124.949 Y146.251 E10.90918
G1 X124.49 Y146.554 E10.96115
G1 X121.64 Y148.296 E11.2768
G1 X120.943 Y148.675 E11.35177
G1 X120.211 Y148.983 E11.42682
G1 X119.966 Y149.058 E11.45104
G1 X119.483 Y149.269 E11.50084
G1 X118.727 Y149.512 E11.57589
G1 X117.952 Y149.679 E11.65081
G1 X117.163 Y149.766 E11.72582
G1 X116.369 Y149.773 E11.80085
G1 X115.579 Y149.701 E11.87582
G1 X114.8 Y149.549 E11.95082
G1 X114.041 Y149.32 E12.02574
G1 X113.308 Y149.016 E12.10073
G1 X112.61 Y148.639 E12.1757
G1 X112.479 Y148.55 E12.19066
G1 X110.445 Y148.55 E12.38288
G1 X110.032 Y148.791 E12.42806
G1 X109.31 Y149.121 E12.50308
G1 X108.558 Y149.376 E12.57812
G1 X107.785 Y149.554 E12.65308
G1 X106.998 Y149.654 E12.72805
G1 X106.205 Y149.673 E12.80301
G1 X105.414 Y149.613 E12.87797
G1 X104.633 Y149.474 E12.95294
G1 X103.869 Y149.257 E13.02799
G1 X102.779 Y148.791 E13.14002
G1 X101.846 Y148.307 E13.23934
G1 X101.161 Y147.907 E13.3143
G1 X101.134 Y147.887 E13.31748
G1 X100.614 Y147.64 E13.37188
G1 X100.238 Y147.424 E13.41286
G1 X98.811 Y146.55 E13.57099
G1 X98.156 Y146.102 E13.64598
G1 X97.55 Y145.59 E13.72095
G1 X96.998 Y145.02 E13.79594
G1 X96.506 Y144.397 E13.87096
G1 X96.079 Y143.728 E13.94596
G1 X95.722 Y143.02 E14.02089
G1 X95.438 Y142.279 E14.09588
G1 X95.23 Y141.513 E14.17089
G1 X95.1 Y140.73 E14.24589
G1 X95.05 Y139.938 E14.32089
G1 X95.079 Y139.145 E14.39587
G1 X95.107 Y138.942 E14.41524
G1 X94.388 Y138.677 E14.48765
G1 X93.675 Y138.33 E14.56259
G1 X93 Y137.912 E14.63761
G1 X92.371 Y137.429 E14.71256
G1 X91.91 Y137.002 E14.77194
G1 X91.807 Y136.899 E14.7857
G1 X91.274 Y136.311 E14.8607
G1 X90.804 Y135.672 E14.93566
G1 X90.401 Y134.988 E15.01069
G1 X90.068 Y134.268 E15.08565
G1 X89.81 Y133.518 E15.1606
G1 X89.628 Y132.745 E15.23565
G1 X89.525 Y131.959 E15.31056
G1 X89.5 Y131.331 E15.36995
G1 X89.5 Y129.512 E15.54185
G1 X89.54 Y128.72 E15.61679
G1 X89.659 Y127.935 E15.69182
G1 X89.857 Y127.167 E15.76677
G1 X90.132 Y126.422 E15.84181
G1 X90.479 Y125.709 E15.91675
G1 X90.897 Y125.034 E15.99177
G1 X91.314 Y124.491 E16.05647
G1 X91.008 Y123.791 E16.12867
G1 X90.765 Y123.035 E16.20371
G1 X90.6 Y122.259 E16.27868
G1 X90.514 Y121.471 E16.35359
G1 X90.5 Y121.008 E16.39736
G1 X90.5 Y101.344 E18.25561
G1 X90.54 Y100.552 E18.33055
G1 X90.659 Y99.767 E18.40558
G1 X90.857 Y98.999 E18.48053
G1 X91.132 Y98.254 E18.55557
G1 X91.319 Y97.87 E18.59594
G1 X91.274 Y97.821 E18.60222
G1 X90.804 Y97.182 E18.67718
G1 X90.401 Y96.498 E18.75221
G1 X90.068 Y95.778 E18.82717
G1 X89.81 Y95.028 E18.90212
G1 X89.628 Y94.255 E18.97717
G1 X89.525 Y93.469 E19.05208
G1 X89.5 Y92.841 E19.11147
G1 X89.5 Y90.992 E19.2862
G1 X89.54 Y90.2 E19.36114
G1 X89.659 Y89.415 E19.43617
G1 X89.857 Y88.647 E19.51112
G1 X90.132 Y87.902 E19.58617
G1 X90.479 Y87.189 E19.6611
G1 X90.897 Y86.514 E19.73613
G1 X91.314 Y85.971 E19.80083
G1 X91.008 Y85.271 E19.87302
G1 X90.765 Y84.515 E19.94807
G1 X90.6 Y83.739 E20.02304
G1 X90.514 Y82.951 E20.09795
G1 X90.5 Y82.488 E20.14172
G1 X90.5 Y81.728 E20.21354
G1 X90.54 Y80.936 E20.28848
G1 X90.659 Y80.151 E20.36351
G1 X90.857 Y79.383 E20.43846
G1 X91.132 Y78.638 E20.5135
G1 X91.479 Y77.925 E20.58844
G1 X91.897 Y77.25 E20.66347
G1 X92.38 Y76.621 E20.73841
G0 F4320 X92.727 Y76.756
G1 F1800 X93.157 Y76.304 E20.79736
G1 X93.733 Y75.785 E20.87063
G1 X94.359 Y75.327 E20.94393
G1 X95.03 Y74.937 E21.01727
G1 X95.736 Y74.617 E21.09052
G1 X96.472 Y74.372 E21.16383
G1 X97.23 Y74.204 E21.2372
G1 X98 Y74.115 E21.31045
G1 X98.478 Y74.1 E21.35564
G1 X101.516 Y74.1 E21.64273
G1 X101.538 Y74.084 E21.6453
G1 X102.213 Y73.701 E21.71864
G1 X102.923 Y73.39 E21.79189
G1 X103.662 Y73.154 E21.8652
G1 X104.421 Y72.994 E21.9385
G1 X105.193 Y72.914 E22.01185
G1 X105.584 Y72.904 E22.04881
G1 X108.153 Y72.904 E22.29158
G1 X108.928 Y72.944 E22.36492
G1 X109.694 Y73.063 E22.43817
G1 X110.136 Y73.18 E22.48138
G1 X111.498 Y73.181 E22.61009
G1 X112.273 Y73.222 E22.68343
G1 X113.039 Y73.342 E22.7567
G1 X113.475 Y73.457 E22.79931
G1 X117.283 Y73.46 E23.15916
G1 X118.057 Y73.501 E23.23241
G1 X118.823 Y73.621 E23.30568
G1 X119.573 Y73.819 E23.37898
G1 X120.299 Y74.093 E23.45231
G1 X120.313 Y74.1 E23.45379
G1 X124.56 Y74.1 E23.85513
G1 X125.335 Y74.14 E23.92847
G1 X126.101 Y74.259 E24.00172
G1 X126.851 Y74.457 E24.07503
G1 X127.577 Y74.731 E24.14836
G1 X128.27 Y75.078 E24.2216
G1 X128.924 Y75.495 E24.2949
G1 X129.532 Y75.977 E24.36822
G1 X129.984 Y76.407 E24.42717
G1 X130.503 Y76.983 E24.50044
G1 X130.961 Y77.609 E24.57374
G1 X131.351 Y78.28 E24.64708
G1 X131.671 Y78.986 E24.72033
G1 X131.916 Y79.722 E24.79364
G1 X132.084 Y80.48 E24.867
G1 X132.173 Y81.25 E24.94025
G1 X132.188 Y81.728 E24.98545
G1 X132.188 Y82.488 E25.05727
G1 X132.148 Y83.263 E25.1306
G1 X132.029 Y84.029 E25.20386
G1 X131.831 Y84.779 E25.27716
G1 X131.557 Y85.505 E25.35049
G1 X131.286 Y86.047 E25.40776
G1 X131.465 Y86.246 E25.43305
G1 X131.923 Y86.872 E25.50635
G1 X132.313 Y87.543 E25.57969
G1 X132.633 Y88.249 E25.65294
G1 X132.878 Y88.985 E25.72625
G1 X133.046 Y89.743 E25.79962
G1 X133.135 Y90.513 E25.87286
G1 X133.15 Y90.991 E25.91806
G1 X133.15 Y92.84 E26.09279
G1 X133.11 Y93.615 E26.16612
G1 X132.991 Y94.381 E26.23938
G1 X132.793 Y95.131 E26.31268
G1 X132.519 Y95.857 E26.38601
G1 X132.172 Y96.55 E26.45925
G1 X131.755 Y97.204 E26.53255
G1 X131.287 Y97.795 E26.60379
G1 X131.482 Y98.163 E26.64315
G1 X131.774 Y98.882 E26.71648
G1 X131.989 Y99.627 E26.78976
G1 X132.127 Y100.39 E26.86303
G1 X132.188 Y101.344 E26.95337
G1 X132.188 Y121.008 E28.81161
G1 X132.148 Y121.783 E28.88495
G1 X132.029 Y122.549 E28.9582
G1 X131.831 Y123.299 E29.03151
G1 X131.557 Y124.025 E29.10484
G1 X131.286 Y124.567 E29.1621
G1 X131.465 Y124.766 E29.1874
G1 X131.923 Y125.392 E29.2607
G1 X132.313 Y126.063 E29.33404
G1 X132.633 Y126.769 E29.40729
G1 X132.878 Y127.505 E29.48059
G1 X133.046 Y128.263 E29.55396
G1 X133.135 Y129.033 E29.62721
G1 X133.15 Y129.511 E29.67241
G1 X133.15 Y131.33 E29.8443
G1 X133.11 Y132.105 E29.91764
G1 X132.991 Y132.871 E29.99089
G1 X132.793 Y133.621 E30.06419
G1 X132.519 Y134.347 E30.13752
G1 X132.172 Y135.04 E30.21076
G1 X131.755 Y135.694 E30.28406
G1 X131.273 Y136.302 E30.35738
G1 X130.87 Y136.728 E30.4128
G1 X130.296 Y137.25 E30.48612
G1 X129.672 Y137.711 E30.55943
G1 X129.004 Y138.104 E30.63267
G1 X128.299 Y138.427 E30.70595
G1 X127.796 Y138.597 E30.75613
G1 X127.85 Y138.903 E30.78549
G1 X127.906 Y139.677 E30.85883
G1 X127.883 Y140.452 E30.9321
G1 X127.779 Y141.221 E31.00543
G1 X127.597 Y141.975 E31.07873
G1 X127.339 Y142.706 E31.15198
G1 X127.006 Y143.407 E31.22532
G1 X126.603 Y144.07 E31.29864
G1 X126.134 Y144.688 E31.37196
G1 X125.604 Y145.254 E31.44523
G1 X125.019 Y145.762 E31.51845
G1 X124.307 Y146.256 E31.60034
G1 X121.457 Y147.998 E31.91599
G1 X120.776 Y148.367 E31.98919
G1 X120.059 Y148.665 E32.06256
G1 X119.841 Y148.73 E32.08406
G1 X119.342 Y148.948 E32.13552
G1 X118.603 Y149.183 E32.2088
G1 X117.844 Y149.341 E32.28207
G1 X117.072 Y149.42 E32.3554
G1 X116.297 Y149.42 E32.42864
G1 X115.525 Y149.339 E32.50199
G1 X114.766 Y149.179 E32.57529
G1 X114.028 Y148.943 E32.64851
G1 X113.317 Y148.631 E32.72189
G1 X112.643 Y148.248 E32.79515
G1 X112.576 Y148.2 E32.80294
G1 X110.357 Y148.2 E33.01263
G1 X109.762 Y148.536 E33.0772
G1 X109.051 Y148.846 E33.1505
G1 X108.311 Y149.081 E33.22387
G1 X107.552 Y149.238 E33.29712
G1 X106.78 Y149.317 E33.37045
G1 X106.005 Y149.315 E33.44369
G1 X105.233 Y149.234 E33.51704
G1 X104.474 Y149.074 E33.59035
G1 X103.736 Y148.837 E33.6636
G1 X102.94 Y148.481 E33.746
G1 X102.007 Y147.997 E33.84532
G1 X101.338 Y147.605 E33.9186
G1 X101.289 Y147.569 E33.92434
G1 X100.421 Y147.125 E34.01648
G1 X98.994 Y146.251 E34.17461
G1 X98.354 Y145.812 E34.24795
G1 X97.763 Y145.31 E34.32123
G1 X97.227 Y144.75 E34.39449
G1 X96.751 Y144.137 E34.46783
G1 X96.341 Y143.479 E34.54109
G1 X96 Y142.782 E34.61442
G1 X95.734 Y142.054 E34.68766
G1 X95.544 Y141.302 E34.76096
G1 X95.432 Y140.534 E34.8343
G1 X95.399 Y139.759 E34.90761
G1 X95.447 Y138.985 E34.98089
G1 X95.497 Y138.684 E35.00973
G1 X95.187 Y138.602 E35.04003
G1 X94.461 Y138.328 E35.11336
G1 X93.768 Y137.981 E35.1866
G1 X93.114 Y137.564 E35.2599
G1 X92.506 Y137.082 E35.33322
G1 X92.054 Y136.652 E35.39217
G1 X91.535 Y136.076 E35.46544
G1 X91.077 Y135.45 E35.53874
G1 X90.687 Y134.779 E35.61208
G1 X90.367 Y134.073 E35.68533
G1 X90.122 Y133.337 E35.75864
G1 X89.954 Y132.579 E35.832
G1 X89.865 Y131.809 E35.90525
G1 X89.85 Y131.331 E35.95045
G1 X89.85 Y129.512 E36.12234
G1 X89.89 Y128.737 E36.19568
G1 X90.009 Y127.971 E36.26893
G1 X90.207 Y127.221 E36.34224
G1 X90.481 Y126.495 E36.41557
G1 X90.828 Y125.802 E36.48881
G1 X91.245 Y125.148 E36.5621
G1 X91.727 Y124.54 E36.63542
G1 X91.556 Y124.189 E36.67232
G1 X91.264 Y123.47 E36.74566
G1 X91.049 Y122.725 E36.81893
G1 X90.911 Y121.962 E36.8922
G1 X90.85 Y121.008 E36.98254
G1 X90.85 Y101.344 E38.84079
G1 X90.89 Y100.569 E38.91412
G1 X91.009 Y99.803 E38.98738
G1 X91.207 Y99.053 E39.06068
G1 X91.481 Y98.327 E39.13401
G1 X91.739 Y97.812 E39.18845
G1 X91.535 Y97.586 E39.21722
G1 X91.077 Y96.96 E39.29052
G1 X90.687 Y96.289 E39.36386
G1 X90.367 Y95.583 E39.43711
G1 X90.122 Y94.847 E39.51041
G1 X89.954 Y94.089 E39.58378
G1 X89.865 Y93.319 E39.65703
G1 X89.85 Y92.841 E39.70223
G1 X89.85 Y90.992 E39.87696
G1 X89.89 Y90.217 E39.95029
G1 X90.009 Y89.451 E40.02355
G1 X90.207 Y88.701 E40.09685
G1 X90.481 Y87.975 E40.17018
G1 X90.828 Y87.282 E40.24342
G1 X91.245 Y86.628 E40.31672
G1 X91.727 Y86.02 E40.39004
G1 X91.556 Y85.669 E40.42693
G1 X91.264 Y84.95 E40.50027
G1 X91.049 Y84.205 E40.57354
G1 X90.911 Y83.442 E40.64682
G1 X90.85 Y82.488 E40.73716
G1 X90.85 Y81.728 E40.80898
G1 X90.89 Y80.953 E40.88231
G1 X91.009 Y80.187 E40.95557
G1 X91.207 Y79.437 E41.02887
G1 X91.481 Y78.711 E41.1022
G1 X91.828 Y78.018 E41.17544
G1 X92.245 Y77.364 E41.24874
G1 X92.727 Y76.756 E41.32206
G0 F4320 X92.593 Y77.48
G1 F1800 X93.302 Y76.655 E41.42485
G1 X93.405 Y76.552 E41.43862
G1 X93.968 Y76.045 E41.51022
G1 X94.581 Y75.601 E41.58174
G1 X95.238 Y75.223 E41.65337
G1 X95.93 Y74.917 E41.72487
G1 X96.652 Y74.686 E41.79651
G1 X97.393 Y74.532 E41.86803
G1 X98.478 Y74.45 E41.97086
G1 X101.632 Y74.45 E42.26891
G1 X101.817 Y74.322 E42.29017
G1 X102.482 Y73.959 E42.36176
G1 X103.181 Y73.668 E42.43331
G1 X103.907 Y73.453 E42.50487
G1 X104.652 Y73.315 E42.57647
G1 X105.584 Y73.254 E42.66473
G1 X108.153 Y73.254 E42.9075
G1 X108.909 Y73.294 E42.97904
G1 X109.657 Y73.413 E43.05062
G1 X110.087 Y73.53 E43.09273
G1 X111.498 Y73.531 E43.22607
G1 X112.254 Y73.572 E43.29762
G1 X113.002 Y73.692 E43.36921
G1 X113.427 Y73.807 E43.41081
G1 X117.282 Y73.81 E43.77511
G1 X118.039 Y73.851 E43.84675
G1 X118.786 Y73.971 E43.91825
G1 X119.517 Y74.169 E43.98982
G1 X120.223 Y74.443 E44.06138
G1 X120.237 Y74.45 E44.06286
G1 X124.56 Y74.45 E44.47138
G1 X125.316 Y74.49 E44.54293
G1 X126.064 Y74.609 E44.6145
G1 X126.795 Y74.807 E44.68607
G1 X127.502 Y75.081 E44.75772
G1 X128.175 Y75.427 E44.82924
G1 X128.808 Y75.843 E44.90082
G1 X129.633 Y76.552 E45.00361
G1 X129.736 Y76.655 E45.01738
G1 X130.243 Y77.218 E45.08897
G1 X130.687 Y77.831 E45.1605
G1 X131.065 Y78.488 E45.23213
G1 X131.371 Y79.18 E45.30363
G1 X131.602 Y79.902 E45.37527
G1 X131.756 Y80.643 E45.44679
G1 X131.838 Y81.728 E45.54961
G1 X131.838 Y82.488 E45.62143
G1 X131.798 Y83.244 E45.69298
G1 X131.679 Y83.992 E45.76455
G1 X131.481 Y84.723 E45.83612
G1 X131.207 Y85.43 E45.90777
G1 X130.862 Y86.1 E45.97899
G1 X131.205 Y86.481 E46.02744
G1 X131.649 Y87.094 E46.09896
G1 X132.027 Y87.751 E46.17059
G1 X132.333 Y88.443 E46.24209
G1 X132.564 Y89.165 E46.31373
G1 X132.718 Y89.906 E46.38525
G1 X132.8 Y90.991 E46.48808
G1 X132.8 Y92.84 E46.66281
G1 X132.76 Y93.596 E46.73435
G1 X132.641 Y94.344 E46.80592
G1 X132.443 Y95.075 E46.87749
G1 X132.169 Y95.782 E46.94915
G1 X131.823 Y96.455 E47.02066
G1 X131.407 Y97.088 E47.09224
G1 X130.857 Y97.732 E47.17227
G1 X130.908 Y97.812 E47.18123
G1 X131.246 Y98.49 E47.25283
G1 X131.51 Y99.199 E47.32432
G1 X131.698 Y99.933 E47.39592
G1 X131.807 Y100.682 E47.46745
G1 X131.838 Y101.344 E47.53008
G1 X131.838 Y121.008 E49.38832
G1 X131.798 Y121.764 E49.45987
G1 X131.679 Y122.512 E49.53144
G1 X131.481 Y123.243 E49.60301
G1 X131.207 Y123.95 E49.67466
G1 X130.862 Y124.62 E49.74588
G1 X131.205 Y125.001 E49.79432
G1 X131.649 Y125.614 E49.86585
G1 X132.027 Y126.271 E49.93748
G1 X132.333 Y126.963 E50.00898
G1 X132.564 Y127.685 E50.08062
G1 X132.718 Y128.426 E50.15214
G1 X132.8 Y129.511 E50.25496
